!!!OTL: Arme Magd (4-25), S. 36
!!!id: P0586
**kern
*clefG2
*k[b-]
*F:
{8c
=1
8f
8f
8f
8a
8f
8a
=2
4cc
8cc
4a}
=3
{8cc
=4
4b-
8b-
4g
8g
=5
4.a}
4r
=6
{8c
=7
4f
8f
8a
8f
8a
=8
4.cc
4a}
=9
{8cc
=10
8b-
8b-
8b-
8g
8g
8g
=11
4.a}
4r
=12
{8c
=13
4f
8f
8a
8f
8a
=14
4.cc
4a}
=15
{8cc
=16
8b-
8b-
8b-
8g
8g
8g
=17
4.a}
4r
==
*-
!!!minrhy: 8
!!!meters: 6/8 ]  ZZ[6
!!!cut: Arme Magd (4-25), S. 36
!!!reg: Lothringen
!!!trd: PINCK, Louis: Verklingende Weisen Bd 4, Kassel 1939
!!!rhy1: X  XXXXXX  X_XX_
!!!rhy2: X  X_XX_X  X_.0_
!!!key: P0586  08  F 6/8 ]  ZZ[6
!!!mod: PENTATONIK DUR ?]  AMBITUS[8
!!!kad: 333333
!!!akz: 1353_423_1353_423_1353_423_
!!!fot: 'a__b__av_bv_av_bv_
!!!for: 'a__b__c__aw_c__aw_
!!!fok: '^a_\__^a_\__^a_\__
!! PHRAS[AUFTAKTIG]
!!!fkt: geistliches, religiöses Lied
!! LOTH VKL
!! PR[21] 2K[11] 2G[26] 3K[0] 3G[2] 4A[4] 4Ü[0] 5A[0] 6K[0] 6G[0]
!! 7K[0] 7G[0] 8A[0] MEHR[0] SI[42] ABS[57] SR[37] SP[5]
!! ST[10] 2k[9] 2g[19] 3k[4] 3g[5] 4d[0] 4ü[0] 5d[0] 6k[0] 6g[0]
!! 7k[0] 7g[0] 8d[0] mehr[0] si[37] dm[+5] sr[28] sp[9]
!! 1F[48] 2F[34] 3F[10] 4F[0] LF[0] 2P[3] 3P[5] 4P[0] TRI[0] DF[5] AB[62]
!! TF[0] U3K[0] U3[0] U4[0] U4Ü[0] U5[2] U6K[0] U6[0] U7K[0] U7[3]
!! N1[14] N2K[0] N2[17] N3K[21] N3[0] N4[17] N4Ü[0] N5[26] N6K[0] N6[0]
!!!n7k: 0] N7[0] O1[0] O2K[0] O2[0] O3K[0] O3[0] HÖ[0
